X:209
T: ES GIEBT NICHTS SCHOENRES
N: E1348
O: Europa, Mitteleuropa, Deutschland, Hessen; Rheinland
R: Staende -, Soldaten -, Kriegs - Lied
M: 4/4
L: 1/8
K: G
D2 | G2G2G2FE | E2D2D2
EF | G2B2d2B2 | A4z2
AB | c3BA2d2 | B3AG2
G2 | A2cAF2EF | G4z2
AB | c3BA2d2 | B3AG2
G2 | A2cAF2EF | G4z2

@@@ Tune index: 4893
